_includes/icons/ios-low-priority.svg

<svg fill="#666" height="50" viewBox="0 0 50 50" width="50" xmlns="http://www.w3.org/2000/svg"><path d="m25 0c-1.0625 0-2.132812.382813-2.96875 1.15625-.011719.011719-.019531.019531-.03125.03125l-20.8125 20.90625c-1.59375 1.59375-1.578125 4.199219-.03125 5.875l.03125.03125 20.8125 20.8125c1.59375 1.59375 4.199219 1.578125 5.875.03125l.03125-.03125 20.8125-20.8125c1.664063-1.664062 1.6875-4.3125.09375-5.90625l-20.90625-20.90625c-.796875-.796875-1.84375-1.1875-2.90625-1.1875zm-.03125 2c.5625 0 1.128906.191406 1.53125.59375l20.90625 20.90625c.808594.808594.8125 2.15625-.125 3.09375l-20.75 20.78125c-.011719.011719-.019531.023438-.03125.03125-.925781.824219-2.296875.796875-3.09375 0l-20.78125-20.78125c-.011719-.011719-.019531-.019531-.03125-.03125-.410156-.460937-.597656-1.035156-.59375-1.59375 0-.140625.003906-.269531.03125-.40625.078125-.40625.261719-.792969.5625-1.09375l20.78125-20.875.03125-.03125c.457031-.40625 1.011719-.59375 1.5625-.59375zm-.0625 10.96875c-.042969.007813-.085937.019531-.125.03125-.464844.105469-.792969.523438-.78125 1v19.5625l-5.28125-5.28125c-.144531-.144531-.328125-.246094-.53125-.28125-.132812-.027344-.273437-.027344-.40625 0-.375.066406-.675781.339844-.78125.703125-.105469.367188.003906.757813.28125 1.015625l6.875 6.84375c.074219.113281.167969.207031.28125.28125l.5625.5625.5625-.5625c.03125-.019531.0625-.039062.09375-.0625l.0625-.0625c0-.011719 0-.019531 0-.03125.023438-.019531.042969-.039062.0625-.0625l6.9375-6.90625c.398438-.398437.398438-1.039062 0-1.4375-.398437-.398437-1.039062-.398437-1.4375 0l-5.28125 5.28125v-19.5625c0-.03125 0-.0625 0-.09375s0-.0625 0-.09375c-.011719-.074219-.035156-.148437-.0625-.21875-.019531-.023437-.039062-.042969-.0625-.0625-.023437-.066406-.054687-.128906-.09375-.1875-.019531-.023437-.039062-.042969-.0625-.0625-.03125-.023437-.0625-.042969-.09375-.0625-.199219-.175781-.457031-.265625-.71875-.25z"/></svg>

<svg xmlns="http://www.w3.org/2000/svg" viewBox="0 0 50 50" width="50" height="50" fill="#666"><path d="M 25 0 C 23.9375 0 22.867188 0.382813 22.03125 1.15625 C 22.019531 1.167969 22.011719 1.175781 22 1.1875 L 1.1875 22.09375 C -0.40625 23.6875 -0.390625 26.292969 1.15625 27.96875 C 1.167969 27.980469 1.175781 27.988281 1.1875 28 L 22 48.8125 C 23.59375 50.40625 26.199219 50.390625 27.875 48.84375 C 27.886719 48.832031 27.894531 48.824219 27.90625 48.8125 L 48.71875 28 C 50.382813 26.335938 50.40625 23.6875 48.8125 22.09375 L 27.90625 1.1875 C 27.109375 0.390625 26.0625 0 25 0 Z M 24.96875 2 C 25.53125 2 26.097656 2.191406 26.5 2.59375 L 47.40625 23.5 C 48.214844 24.308594 48.21875 25.65625 47.28125 26.59375 L 26.53125 47.375 C 26.519531 47.386719 26.511719 47.398438 26.5 47.40625 C 25.574219 48.230469 24.203125 48.203125 23.40625 47.40625 L 2.625 26.625 C 2.613281 26.613281 2.605469 26.605469 2.59375 26.59375 C 2.183594 26.132813 1.996094 25.558594 2 25 C 2 24.859375 2.003906 24.730469 2.03125 24.59375 C 2.109375 24.1875 2.292969 23.800781 2.59375 23.5 L 23.375 2.625 L 23.40625 2.59375 C 23.863281 2.1875 24.417969 2 24.96875 2 Z M 24.90625 12.96875 C 24.863281 12.976563 24.820313 12.988281 24.78125 13 C 24.316406 13.105469 23.988281 13.523438 24 14 L 24 33.5625 L 18.71875 28.28125 C 18.574219 28.136719 18.390625 28.035156 18.1875 28 C 18.054688 27.972656 17.914063 27.972656 17.78125 28 C 17.40625 28.066406 17.105469 28.339844 17 28.703125 C 16.894531 29.070313 17.003906 29.460938 17.28125 29.71875 L 24.15625 36.5625 C 24.230469 36.675781 24.324219 36.769531 24.4375 36.84375 L 25 37.40625 L 25.5625 36.84375 C 25.59375 36.824219 25.625 36.804688 25.65625 36.78125 L 25.71875 36.71875 C 25.71875 36.707031 25.71875 36.699219 25.71875 36.6875 C 25.742188 36.667969 25.761719 36.648438 25.78125 36.625 L 32.71875 29.71875 C 33.117188 29.320313 33.117188 28.679688 32.71875 28.28125 C 32.320313 27.882813 31.679688 27.882813 31.28125 28.28125 L 26 33.5625 L 26 14 C 26 13.96875 26 13.9375 26 13.90625 C 26 13.875 26 13.84375 26 13.8125 C 25.988281 13.738281 25.964844 13.664063 25.9375 13.59375 C 25.917969 13.570313 25.898438 13.550781 25.875 13.53125 C 25.851563 13.464844 25.820313 13.402344 25.78125 13.34375 C 25.761719 13.320313 25.742188 13.300781 25.71875 13.28125 C 25.6875 13.257813 25.65625 13.238281 25.625 13.21875 C 25.425781 13.042969 25.167969 12.953125 24.90625 12.96875 Z"/></svg>
